X: 31
T:Captain Taylor's March
R:march
Z:John Chambers <jc@eddie.mit.edu>
M:2/4
L:1/8
K:G
DE/F/|G>F GA|B2 gf|eg/e/ dB|AB/A/ GA|
B>A B/A/G/F/|EG FA|G2 G>F|G2:|
de/f/|g2 f2|e2 fg|a>g fe|d2 Bd|
e>d ef|g>f ed|e>d eg|ed BA|
G>F GA|B2 gf|eg/e/ dB|AB/A/ GA|
B>A B/A/G/F/|EG FA|G2 G>F|G2|]
